X: 9126
T: Daddy Shannon's
R: jig
M: 6/8
K: Dmajor
A,2B, DAG|FAd d2B|BAA AGF|GEE E2 A,|
A,2C CEE|EGG c2B|BAA AEF|GF=F ^FAG|
FGA Ade|fge fag|fdA gdA|afd fed|
Bdd dcB|AdB AFD|B,GE A,FE|1 CDE D2 B,:|2 CDE D2 C||
B,3 DB,D|EDE F2 E|FBc dcB|cB_B =B2 f|
dBF BFE|B,DE =F3|1 E3 =F EDA,|B,3DB,A,:|2 =FEE E^FA|B3B2c||
d3 dAA|AFF F2A|Ggg fee|efd efg|faa ~a2 f|
edd dfa|bgB geA|Afe dag|ead dfA|AdF FAF|Ggg fee|
efd efg|faa ~a2f|edd dfa|bgB geA|Afe dcB||
AGF E3|EFD E2 A,|A,GG GAA|ABB BAB|AGF E3|
EFD E2 A,|A,GF G3F|EDC D2B|AGF E3|EFD E2 A,|
A,FF A,GG|A,AA ~B2B|AGF E3|EFD E2 A,|A,GF G3F|EDC D2B,||

